app/dist/common/images/tandem-diabetes-care.svg

<svg height="18" width="18" xmlns="http://www.w3.org/2000/svg"><path d="m0 0h18v18h-18z" fill="#006182"/><path d="m13.224 6h-8.448a.774.774 0 0 0 -.776.779v4.428c0 .432.345.793.776.793h3.724v-4h-2.5v-1h6v1h-2.5v4h3.724a.774.774 0 0 0 .776-.779v-4.441a.774.774 0 0 0 -.776-.78z" fill="#fff"/></svg>

<!-- by TradingView --><svg width="18" height="18" xmlns="http://www.w3.org/2000/svg"><path fill="#006182" d="M0 0h18v18H0z"/><path d="M13.224 6H4.776A.774.774 0 004 6.779v4.428c0 .432.345.793.776.793H8.5V8H6V7h6v1H9.5v4h3.724a.774.774 0 00.776-.779V6.78A.774.774 0 0013.224 6z" fill="#fff"/></svg>
